X: 1400
T: Mâhur Peşrev
C: Gazi Giray Han
O: Turkey
F: http://compmusic.upf.edu/node/140
N: mahur--pesrev--duyek----gazi_giray_han
N: makam= mahur
N: form= pesrev
N: usul= duyek = 8/4
M: 8/4
L: 1/16
K: C ^9/8f   
Q: 1/4=204
%%MIDI tuningsystem comma53
g2 g4 a2 g4 a2 e2  | g2 g4 a2 g4 f2 e2  | \
w:  1. HANE  |   | 
g2 g4 a2 g4 a4  | f2 f2 g2 g2 e4 f4  | 
w:   |   | 
d2 d2 e2 d2 e4 f4  | g2 f2 e2 f2 g6 z2  | \
w:   |   | 
f2 g2 a2 b2 b2 a2 g4  | f2 g2 a2 b2 b2 a2 g4  | 
w:   |   | 
f2 g2 a2 b2 b2 g2 a2 f2  | g2 a2 g2 a2 g6 z2  | \
w:   |   | 
G2 A2 G2 B2 A2 c2 B2 d2  | 
w:  TESLİM  | 
c2 e2 d2 f2 e2 g2 f2 a2  | g2 b2 a2 g2 f2 e2 d2 ^c2  | \
w:   |   | 
d2 e2 f2 g2 e2 f2 g2 a2  | 
w:   | 
f2 g2 a2 b2 b2 g2 a2 f2  | g2 ag a2 f2 g6 z2  | \
w:   |   | 
G2 A2 G2 B2 A2 c2 B2 d2  | 
w:   | 
c2 e2 d2 f2 e2 g2 f2 a2  | g2 b2 a2 g2 f2 e2 d2 ^c2  | \
w:   |   | 
d2 e2 f2 g2 e2 f2 g2 a2  | 
w:   | 
f2 g2 a2 b2 b2 g2 a2 f2  | g2 ag a2 f2 g6 z2  | \
w:   |   | 
g2 g4 a2 g2 f2 e4  | 
w:   | 
f2 g2 f2 g2 f2 e2 d4  | g2 g4 a2 g2 f2 e4  | \
w:   |   | 
f2 g2 f2 g2 f2 e2 d4  | e2 e4 =f2 e2 d2 c4  | 
w:   |   | 
d2 c2 d2 e2 d2 c2 B4  | B2 c2 d2 e2 e2 c2 d2 B2  | \
w:   |   | 
c2 d4 c2 B4 A4  | F2 G2 A2 B2 B2 G2 A2 F2  | 
w:   |   | 
G2 AG A2 F2 G6 z2  | g2 g4 a2 g2 f2 e4  | \
w:   |  2. HANE  | 
f2 g2 f2 g2 f2 e2 d4  | g2 a2 g2 a2 g2 f2 e4  | 
w:   |   | 
f2 g2 f2 g2 f2 e2 d2 ^c2  | d2 e2 f2 g2 e2 f2 g2 a2  | \
w:   |   | 
f2 g2 a2 b2 b2 g2 a2 f2  | 
w:   | 
g2 ag a2 f2 g6 z2  | g2 f2 g2 a2 b6 z2  | \
w:   |   | 
c'2 b2 c'2 c'2 b4 a4  | g2 f2 g2 a2 b6 z2  | 
w:   |   | 
c'2 b2 c'2 c'2 b4 a4  | b2 a2 b2 c'2 d'4 c'2 b2  | \
w:   |   | 
a2 b2 c'2 b2 a6 z2  | f2 g2 a2 b2 b2 g2 a2 f2  | 
w:   |   | 
g2 ag a2 f2 g6 z2  | G2 A2 G2 B2 A2 c2 B2 d2  | \
w:   |  TESLİM  | 
c2 e2 d2 f2 e2 g2 f2 a2  | 
w:   | 
g2 b2 a2 g2 f2 e2 d2 ^c2  | d2 e2 f2 g2 e2 f2 g2 a2  | \
w:   |   | 
f2 g2 a2 b2 b2 g2 a2 f2  | 
w:   | 
g2 ag a2 f2 g6 z2  | G2 A2 G2 B2 A2 c2 B2 d2  | \
w:   |   | 
c2 e2 d2 f2 e2 g2 f2 a2  | 
w:   | 
g2 b2 a2 g2 f2 e2 d2 ^c2  | d2 e2 f2 g2 e2 f2 g2 a2  | \
w:   |   | 
f2 g2 a2 b2 b2 g2 a2 f2  | 
w:   | 
g2 ag a2 f2 g6 z2  | g2 g4 a2 g2 f2 e4  | \
w:   |   | 
f2 g2 f2 g2 f2 e2 d4  | g2 g4 a2 g2 f2 e4  | 
w:   |   | 
f2 g2 f2 g2 f2 e2 d4  | e2 e4 =f2 e2 d2 c4  | \
w:   |   | 
d2 c2 d2 e2 d2 c2 B4  | B2 c2 d2 e2 e2 c2 d2 B2  | 
w:   |   | 
c2 d4 c2 B4 A4  | F2 G2 A2 B2 B2 G2 A2 F2  | \
w:   |   | 
G2 AG A2 F2 G6 z2  | f2 g2 a4 f2 g2 a4  | 
w:   |  3. HANE  | 
g2 a2 g2 a2 g2 f2 e4  | e2 f2 g4 e2 f2 g4  | \
w:   |   | 
f2 g2 f2 g2 f2 e2 d2 ^c2  | 
w:   | 
d2 e2 f2 g2 e2 f2 g2 a2  | f2 g2 a2 b2 b2 g2 a2 f2  | \
w:   |   | 
g2 ag a2 f2 g6 z2  | 
w:   | 
c'4 b2 a2 b4 a2 g2  | a2 g2 a2 b2 g4 a2 b2  | \
w:   |   | 
c'4 b2 a2 b4 a2 g2  | a2 g2 a2 b2 g6 z2  | 
w:   |   | 
c'4 b2 a2 b4 a2 g2  | a2 g2 a2 b2 g4 a2 b2  | \
w:   |   | 
c'4 b2 a2 b4 a2 g2  | a2 g2 a2 b2 g6 z2  | 
w:   |   | 
G2 A2 G2 B2 A2 c2 B2 d2  | c2 e2 d2 f2 e2 g2 f2 a2  | \
w:  TESLİM  |   | 
g2 b2 a2 g2 f2 e2 d2 ^c2  | 
w:   | 
d2 e2 f2 g2 e2 f2 g2 a2  | f2 g2 a2 b2 b2 g2 a2 f2  | \
w:   |   | 
g2 ag a2 f2 g6 z2  | 
w:   | 
G2 A2 G2 B2 A2 c2 B2 d2  | c2 e2 d2 f2 e2 g2 f2 a2  | \
w:   |   | 
g2 b2 a2 g2 f2 e2 d2 ^c2  | 
w:   | 
d2 e2 f2 g2 e2 f2 g2 a2  | f2 g2 a2 b2 b2 g2 a2 f2  | \
w:   |   | 
g2 ag a2 f2 g6 z2  | 
w:   | 
g2 g4 a2 g2 f2 e4  | f2 g2 f2 g2 f2 e2 d4  | \
w:   |   | 
g2 g4 a2 g2 f2 e4  | f2 g2 f2 g2 f2 e2 d4  | 
w:   |   | 
e2 e4 =f2 e2 d2 c4  | d2 c2 d2 e2 d2 c2 B4  | \
w:   |   | 
B2 c2 d2 e2 e2 c2 d2 B2  | 
w:   | 
c2 d4 c2 B4 A4  | F2 G2 A2 B2 B2 G2 A2 F2  | \
w:   |   | 
G2 AG A2 F2 G6 z2  | |


